X: 132
%
U:~=!turn!
T: Miss Jane MacInnes
T: Dandaleith
C:Marshall
O:Scotland
B:Keith Norman MacDonald : "The Skye collection of the best reels & strathspeys extant" : 1887
Z:Ralph Palmer
R:Reel
M:C|
L:1/8
K:D
D2 (DF) ABdf | D2 (DF) ED B,2 | D2 DF ABdf | abaf d/d/d d2 :| gbfa efdA | g>fe>d B/B/B B2 |
gbfa efdA | B<d TA>F D/D/D D2 | gbfa efdA | g>fe>d B/B/B B2 | gefd ecdA | B<dA>F D/D/D D2 |]


